{ "compressionlevel":-1,
 "height":22,
 "infinite":false,
 "layers":[
        {
         "data":[0, 0, 0, 0, 0, 0, 0, 0, 0, 0, 0,
            0, 0, 158, 159, 159, 189, 0, 0, 0, 0, 0,
            0, 0, 168, 0, 0, 0, 0, 0, 0, 0, 0,
            0, 0, 168, 0, 0, 0, 0, 0, 0, 0, 0,
            0, 0, 168, 0, 0, 0, 0, 0, 0, 0, 0,
            159, 159, 168, 0, 0, 0, 0, 0, 211, 212, 212,
            0, 0, 168, 0, 0, 0, 0, 0, 221, 0, 0,
            0, 0, 168, 0, 0, 0, 0, 0, 221, 0, 0,
            0, 0, 168, 0, 0, 0, 0, 0, 221, 0, 0,
            0, 0, 168, 0, 0, 0, 0, 0, 221, 0, 0,
            0, 0, 168, 0, 0, 0, 0, 0, 221, 0, 0,
            0, 0, 168, 0, 0, 0, 0, 0, 221, 0, 0,
            0, 0, 168, 0, 0, 0, 0, 0, 221, 0, 0,
            0, 0, 168, 0, 0, 0, 0, 0, 221, 0, 0,
            0, 0, 168, 0, 0, 0, 0, 0, 221, 0, 0,
            0, 0, 168, 0, 0, 0, 0, 0, 221, 0, 0,
            21, 92, 180, 0, 0, 0, 0, 0, 221, 0, 0,
            0, 0, 0, 0, 0, 0, 0, 0, 221, 0, 0,
            0, 0, 0, 0, 0, 221, 0, 0, 221, 0, 0,
            0, 0, 0, 0, 0, 211, 212, 212, 233, 0, 0,
            0, 0, 0, 0, 0, 221, 0, 0, 0, 0, 0,
            0, 0, 0, 0, 0, 221, 0, 0, 0, 0, 0],
         "height":22,
         "id":2,
         "name":"Overlap",
         "opacity":1,
         "type":"tilelayer",
         "visible":true,
         "width":11,
         "x":0,
         "y":0
        }, 
        {
         "data":[0, 0, 0, 107, 34, 34, 34, 108, 0, 0, 0,
            0, 0, 0, 0, 0, 0, 0, 0, 0, 0, 0,
            0, 0, 0, 0, 0, 34, 46, 0, 0, 0, 0,
            0, 107, 0, 34, 0, 46, 0, 0, 0, 108, 0,
            34, 34, 0, 34, 34, 0, 0, 0, 0, 34, 34,
            0, 0, 0, 0, 0, 0, 46, 0, 0, 0, 0,
            34, 34, 0, 0, 46, 0, 0, 0, 0, 34, 34,
            0, 117, 0, 0, 46, 0, 46, 46, 0, 118, 0,
            0, 0, 0, 0, 0, 0, 0, 0, 0, 0, 0,
            0, 0, 0, 0, 0, 0, 0, 0, 0, 0, 0,
            0, 0, 0, 0, 0, 0, 0, 0, 0, 0, 0,
            0, 0, 0, 0, 0, 0, 0, 0, 0, 0, 0,
            0, 0, 0, 0, 0, 0, 0, 0, 0, 0, 0,
            0, 0, 0, 0, 0, 0, 0, 0, 0, 0, 0,
            0, 107, 0, 0, 0, 0, 0, 0, 0, 0, 0,
            34, 34, 0, 34, 0, 46, 0, 0, 0, 0, 0,
            0, 0, 0, 0, 0, 0, 0, 0, 0, 0, 0,
            34, 34, 0, 34, 0, 0, 0, 0, 0, 0, 0,
            0, 34, 0, 33, 0, 34, 0, 0, 0, 34, 0,
            0, 34, 0, 0, 0, 0, 0, 0, 0, 0, 0,
            0, 117, 34, 34, 34, 12, 34, 118, 0, 0, 0,
            0, 0, 0, 0, 34, 0, 34, 0, 0, 0, 0],
         "height":22,
         "id":1,
         "name":"Blocks",
         "opacity":1,
         "type":"tilelayer",
         "visible":true,
         "width":11,
         "x":0,
         "y":0
        }, 
        {
         "data":[0, 0, 0, 0, 0, 0, 0, 0, 0, 0, 0,
            0, 0, 0, 0, 0, 0, 0, 0, 0, 0, 0,
            0, 0, 0, 0, 0, 0, 0, 0, 0, 0, 0,
            0, 0, 0, 0, 0, 0, 0, 0, 0, 0, 0,
            0, 0, 0, 0, 0, 0, 0, 0, 0, 0, 0,
            0, 82, 0, 0, 0, 0, 0, 0, 0, 0, 0,
            0, 0, 0, 0, 0, 0, 0, 0, 0, 0, 0,
            0, 0, 0, 0, 0, 0, 0, 0, 0, 0, 0,
            0, 0, 0, 0, 0, 0, 0, 0, 0, 0, 0,
            0, 0, 0, 0, 0, 0, 0, 0, 0, 0, 0,
            0, 0, 0, 0, 0, 0, 0, 0, 0, 0, 0,
            0, 0, 0, 0, 0, 0, 0, 0, 0, 0, 0,
            0, 0, 0, 0, 0, 0, 0, 0, 0, 0, 0,
            0, 0, 0, 0, 0, 0, 0, 0, 0, 0, 0,
            0, 0, 0, 0, 0, 0, 0, 0, 0, 0, 0,
            0, 0, 0, 0, 0, 0, 0, 0, 0, 0, 0,
            0, 0, 0, 0, 0, 0, 0, 0, 0, 0, 0,
            0, 0, 0, 0, 0, 0, 0, 0, 0, 0, 0,
            0, 0, 0, 0, 0, 0, 0, 0, 0, 0, 0,
            0, 0, 0, 0, 0, 0, 0, 0, 0, 0, 0,
            0, 0, 0, 0, 0, 0, 0, 0, 0, 0, 0,
            0, 0, 0, 0, 0, 0, 0, 0, 0, 0, 0],
         "height":22,
         "id":3,
         "name":"Door",
         "opacity":1,
         "type":"tilelayer",
         "visible":true,
         "width":11,
         "x":0,
         "y":0
        }],
 "nextlayerid":4,
 "nextobjectid":1,
 "orientation":"orthogonal",
 "renderorder":"right-down",
 "tiledversion":"1.11.2",
 "tileheight":32,
 "tilesets":[
        {
         "firstgid":1,
         "source":"..\/TileSet\/game_tilesets.tsj"
        }],
 "tilewidth":32,
 "type":"map",
 "version":"1.10",
 "width":11
}