{ "compressionlevel":-1,
 "height":10,
 "infinite":false,
 "layers":[
        {
         "data":[0, 0, 0, 0, 221, 0, 0, 0, 0, 0,
            0, 0, 0, 0, 221, 0, 0, 0, 0, 0,
            0, 0, 0, 0, 221, 0, 190, 0, 0, 0,
            0, 0, 0, 0, 222, 159, 180, 0, 0, 0,
            0, 0, 0, 0, 221, 0, 0, 0, 0, 0,
            0, 0, 0, 0, 221, 0, 0, 0, 0, 0,
            0, 0, 0, 0, 221, 0, 0, 0, 0, 0,
            0, 0, 0, 0, 221, 0, 0, 0, 0, 0,
            0, 0, 0, 0, 221, 0, 0, 0, 0, 0,
            0, 0, 0, 0, 221, 0, 0, 0, 0, 0],
         "height":10,
         "id":2,
         "name":"Overlap",
         "opacity":1,
         "type":"tilelayer",
         "visible":true,
         "width":10,
         "x":0,
         "y":0
        }, 
        {
         "data":[0, 0, 0, 0, 0, 0, 0, 0, 0, 0,
            0, 0, 0, 0, 84, 0, 0, 0, 0, 0,
            0, 0, 0, 0, 0, 0, 0, 0, 0, 0,
            0, 0, 0, 0, 0, 0, 0, 0, 0, 0,
            0, 0, 0, 0, 0, 0, 0, 0, 0, 0,
            0, 0, 0, 0, 0, 0, 0, 0, 0, 0,
            0, 0, 0, 0, 0, 0, 0, 0, 0, 0,
            0, 0, 0, 0, 0, 0, 0, 0, 0, 0,
            0, 0, 0, 0, 0, 0, 0, 0, 0, 0,
            0, 0, 0, 0, 0, 0, 0, 0, 0, 0],
         "height":10,
         "id":3,
         "name":"Door",
         "opacity":1,
         "type":"tilelayer",
         "visible":true,
         "width":10,
         "x":0,
         "y":0
        }, 
        {
         "data":[0, 0, 107, 34, 0, 34, 108, 0, 0, 0,
            0, 107, 34, 34, 0, 34, 34, 108, 0, 0,
            0, 34, 0, 0, 0, 0, 0, 34, 0, 0,
            0, 0, 0, 0, 0, 0, 0, 0, 0, 0,
            0, 0, 0, 0, 0, 0, 0, 0, 0, 0,
            0, 0, 0, 107, 34, 0, 12, 0, 34, 0,
            0, 0, 0, 34, 0, 0, 0, 0, 118, 0,
            0, 0, 0, 0, 0, 0, 34, 0, 0, 0,
            0, 0, 0, 0, 0, 0, 0, 0, 0, 0,
            0, 0, 0, 0, 0, 0, 0, 0, 0, 0],
         "height":10,
         "id":1,
         "name":"Blocks",
         "opacity":1,
         "type":"tilelayer",
         "visible":true,
         "width":10,
         "x":0,
         "y":0
        }],
 "nextlayerid":4,
 "nextobjectid":1,
 "orientation":"orthogonal",
 "renderorder":"right-down",
 "tiledversion":"1.11.2",
 "tileheight":32,
 "tilesets":[
        {
         "firstgid":1,
         "source":"..\/TileSet\/game_tilesets.tsj"
        }],
 "tilewidth":32,
 "type":"map",
 "version":"1.10",
 "width":10
}