{ "compressionlevel":-1,
 "height":11,
 "infinite":false,
 "layers":[
        {
         "data":[0, 0, 0, 0, 0, 0, 0, 0, 0, 0, 0,
            0, 0, 0, 0, 107, 0, 108, 0, 0, 0, 0,
            0, 0, 0, 107, 34, 0, 34, 108, 0, 0, 0,
            0, 0, 107, 34, 118, 0, 117, 34, 108, 0, 0,
            0, 109, 34, 118, 0, 0, 0, 117, 34, 108, 0,
            109, 34, 118, 0, 0, 0, 0, 0, 117, 34, 110,
            0, 0, 0, 0, 0, 0, 0, 0, 0, 0, 0,
            0, 0, 0, 0, 0, 0, 0, 0, 0, 0, 0,
            0, 0, 0, 0, 0, 32, 0, 0, 0, 0, 0,
            34, 34, 34, 34, 34, 34, 34, 34, 34, 120, 0,
            0, 0, 0, 0, 0, 0, 0, 0, 0, 0, 0],
         "height":11,
         "id":1,
         "name":"Blocks",
         "opacity":1,
         "type":"tilelayer",
         "visible":false,
         "width":11,
         "x":0,
         "y":0
        }, 
        {
         "draworder":"topdown",
         "id":2,
         "name":"levle_info",
         "objects":[],
         "opacity":1,
         "type":"objectgroup",
         "visible":true,
         "x":0,
         "y":0
        }],
 "nextlayerid":3,
 "nextobjectid":1,
 "orientation":"orthogonal",
 "properties":[
        {
         "name":"visible_star_count",
         "type":"int",
         "value":10
        }],
 "renderorder":"right-down",
 "tiledversion":"1.11.2",
 "tileheight":32,
 "tilesets":[
        {
         "firstgid":1,
         "source":"..\/TlieSet\/tileSet.tsx"
        }],
 "tilewidth":32,
 "type":"map",
 "version":"1.10",
 "width":11
}