{ "compressionlevel":-1,
 "height":11,
 "infinite":false,
 "layers":[
        {
         "data":[0, 0, 0, 0, 0, 0, 0, 0, 0, 0, 0,
            0, 0, 0, 0, 0, 0, 0, 0, 0, 0, 0,
            0, 0, 188, 159, 159, 159, 159, 160, 34, 0, 0,
            0, 0, 0, 0, 0, 0, 0, 169, 0, 0, 0,
            0, 0, 0, 0, 0, 0, 0, 168, 0, 0, 0,
            212, 212, 212, 212, 212, 212, 212, 222, 212, 212, 212,
            0, 0, 0, 0, 0, 0, 0, 0, 0, 0, 0,
            0, 0, 0, 0, 0, 0, 0, 0, 0, 0, 0,
            0, 0, 34, 0, 0, 0, 0, 0, 0, 0, 0,
            0, 0, 0, 0, 0, 0, 0, 0, 0, 0, 0,
            0, 0, 0, 0, 34, 0, 34, 0, 0, 0, 0],
         "height":11,
         "id":3,
         "name":"Overlap",
         "opacity":1,
         "type":"tilelayer",
         "visible":true,
         "width":11,
         "x":0,
         "y":0
        }, 
        {
         "data":[0, 0, 0, 0, 0, 0, 0, 0, 0, 0, 0,
            0, 0, 0, 0, 0, 0, 0, 0, 0, 0, 0,
            0, 0, 0, 0, 0, 0, 0, 0, 0, 0, 0,
            0, 0, 0, 0, 0, 0, 0, 0, 0, 0, 0,
            0, 0, 0, 0, 0, 0, 0, 0, 0, 0, 0,
            0, 0, 0, 0, 0, 0, 0, 0, 0, 83, 0,
            0, 0, 0, 0, 0, 0, 0, 0, 0, 0, 0,
            0, 0, 0, 0, 0, 0, 0, 0, 0, 0, 0,
            0, 0, 0, 0, 0, 0, 0, 0, 0, 0, 0,
            0, 0, 0, 0, 0, 0, 0, 0, 0, 0, 0,
            0, 0, 0, 0, 0, 0, 0, 0, 0, 0, 0],
         "height":11,
         "id":7,
         "name":"Door",
         "opacity":1,
         "type":"tilelayer",
         "visible":true,
         "width":11,
         "x":0,
         "y":0
        }, 
        {
         "data":[0, 0, 0, 107, 34, 34, 34, 108, 0, 0, 0,
            0, 0, 107, 34, 34, 34, 34, 34, 108, 0, 0,
            0, 107, 0, 0, 33, 0, 0, 0, 34, 108, 0,
            107, 34, 34, 34, 34, 34, 34, 0, 34, 34, 108,
            34, 34, 34, 34, 34, 34, 34, 0, 34, 34, 34,
            0, 0, 0, 0, 33, 0, 0, 0, 0, 0, 0,
            34, 34, 34, 34, 34, 34, 34, 34, 0, 34, 34,
            117, 34, 34, 34, 34, 34, 34, 34, 0, 34, 118,
            0, 117, 0, 0, 0, 0, 0, 13, 0, 118, 0,
            0, 0, 117, 34, 34, 0, 34, 34, 118, 0, 0,
            0, 0, 0, 117, 0, 0, 0, 118, 0, 0, 0],
         "height":11,
         "id":1,
         "name":"Blocks",
         "opacity":1,
         "type":"tilelayer",
         "visible":true,
         "width":11,
         "x":0,
         "y":0
        }, 
        {
         "data":[0, 0, 0, 0, 0, 0, 0, 0, 0, 0, 0,
            0, 0, 0, 0, 0, 0, 0, 0, 0, 0, 0,
            0, 0, 0, 0, 0, 0, 0, 0, 0, 0, 0,
            0, 0, 0, 0, 0, 0, 0, 0, 0, 0, 0,
            0, 0, 0, 0, 0, 0, 0, 0, 0, 0, 0,
            0, 0, 0, 0, 0, 0, 0, 0, 0, 0, 0,
            0, 0, 0, 0, 0, 0, 0, 0, 0, 0, 0,
            0, 0, 0, 0, 0, 0, 0, 0, 0, 0, 0,
            0, 0, 0, 0, 0, 0, 0, 0, 0, 0, 0,
            0, 0, 0, 0, 0, 0, 0, 0, 0, 0, 0,
            0, 0, 0, 0, 0, 0, 0, 0, 0, 0, 0],
         "height":11,
         "id":4,
         "name":"Player",
         "opacity":1,
         "type":"tilelayer",
         "visible":true,
         "width":11,
         "x":0,
         "y":0
        }],
 "nextlayerid":8,
 "nextobjectid":1,
 "orientation":"orthogonal",
 "renderorder":"right-down",
 "tiledversion":"1.11.2",
 "tileheight":32,
 "tilesets":[
        {
         "firstgid":1,
         "source":"..\/TileSet\/game_tilesets.tsj"
        }],
 "tilewidth":32,
 "type":"map",
 "version":"1.10",
 "width":11
}