{ "compressionlevel":-1,
 "height":11,
 "infinite":false,
 "layers":[
        {
         "data":[0, 107, 0, 108, 0, 0, 0, 0, 0,
            0, 34, 0, 34, 0, 0, 0, 0, 0,
            107, 34, 0, 34, 108, 0, 0, 0, 0,
            34, 34, 0, 34, 34, 110, 0, 0, 107,
            118, 0, 0, 0, 0, 0, 0, 109, 34,
            0, 0, 0, 34, 33, 0, 0, 0, 0,
            0, 0, 0, 34, 0, 119, 34, 34, 34,
            0, 0, 0, 0, 0, 0, 0, 117, 34,
            0, 0, 0, 0, 0, 0, 0, 0, 0,
            0, 0, 0, 0, 0, 0, 0, 0, 0,
            0, 0, 0, 0, 0, 0, 0, 0, 0],
         "height":11,
         "id":2,
         "name":"Blocks",
         "opacity":1,
         "type":"tilelayer",
         "visible":true,
         "width":9,
         "x":0,
         "y":0
        }, 
        {
         "draworder":"topdown",
         "id":3,
         "name":"level_info",
         "objects":[],
         "opacity":1,
         "properties":[
                {
                 "name":"visible_star_count",
                 "type":"int",
                 "value":1
                }],
         "type":"objectgroup",
         "visible":true,
         "x":0,
         "y":0
        }, 
        {
         "data":[0, 0, 0, 0, 0, 0, 0, 0, 0,
            0, 0, 21, 0, 0, 0, 0, 0, 0,
            0, 0, 0, 0, 0, 0, 0, 0, 0,
            0, 0, 84, 0, 0, 0, 0, 0, 0,
            0, 36, 28, 0, 0, 0, 0, 0, 0,
            0, 0, 0, 0, 0, 0, 0, 0, 0,
            0, 0, 0, 0, 0, 0, 0, 0, 0,
            0, 0, 0, 0, 0, 0, 0, 0, 0,
            0, 0, 0, 0, 0, 0, 0, 0, 0,
            0, 0, 0, 0, 0, 0, 0, 0, 0,
            0, 0, 0, 0, 0, 0, 0, 0, 0],
         "height":11,
         "id":1,
         "name":"Overlap",
         "opacity":1,
         "type":"tilelayer",
         "visible":true,
         "width":9,
         "x":0,
         "y":0
        }],
 "nextlayerid":4,
 "nextobjectid":1,
 "orientation":"orthogonal",
 "renderorder":"right-down",
 "tiledversion":"1.11.2",
 "tileheight":32,
 "tilesets":[
        {
         "firstgid":1,
         "source":"..\/TlieSet\/tileSet.tsx"
        }],
 "tilewidth":32,
 "type":"map",
 "version":"1.10",
 "width":9
}