{ "compressionlevel":-1,
 "height":11,
 "infinite":false,
 "layers":[
        {
         "data":[0, 0, 0, 0, 0, 221, 0, 0, 0, 0, 0,
            0, 0, 0, 0, 0, 221, 0, 0, 0, 0, 0,
            0, 0, 0, 0, 0, 221, 0, 0, 0, 0, 0,
            0, 0, 0, 0, 0, 221, 0, 0, 0, 0, 0,
            0, 0, 0, 0, 0, 221, 0, 0, 0, 0, 0,
            212, 212, 212, 212, 212, 233, 0, 0, 158, 83, 21,
            0, 0, 0, 0, 0, 0, 0, 0, 168, 0, 0,
            0, 0, 0, 0, 0, 0, 0, 0, 168, 0, 0,
            0, 0, 188, 159, 159, 159, 159, 159, 169, 0, 0,
            0, 0, 0, 0, 0, 0, 0, 0, 0, 0, 0,
            0, 0, 0, 0, 0, 0, 0, 0, 0, 0, 0],
         "height":11,
         "id":2,
         "name":"Overlap",
         "opacity":1,
         "type":"tilelayer",
         "visible":true,
         "width":11,
         "x":0,
         "y":0
        }, 
        {
         "data":[0, 0, 0, 107, 34, 0, 34, 108, 0, 0, 0,
            0, 107, 34, 34, 34, 0, 34, 34, 34, 108, 0,
            0, 34, 0, 0, 0, 0, 0, 0, 0, 34, 0,
            0, 34, 0, 0, 0, 0, 34, 0, 0, 34, 0,
            34, 34, 0, 34, 34, 46, 34, 0, 0, 34, 34,
            0, 46, 0, 0, 46, 0, 46, 0, 0, 0, 0,
            34, 34, 0, 0, 34, 46, 34, 34, 0, 34, 34,
            0, 34, 0, 0, 34, 0, 0, 0, 0, 34, 0,
            0, 34, 33, 0, 0, 0, 0, 0, 0, 34, 0,
            0, 117, 34, 34, 34, 0, 34, 34, 34, 118, 0,
            0, 0, 0, 117, 34, 33, 34, 118, 0, 0, 0],
         "height":11,
         "id":1,
         "name":"Blocks",
         "opacity":1,
         "type":"tilelayer",
         "visible":true,
         "width":11,
         "x":0,
         "y":0
        }, 
        {
         "data":[0, 0, 0, 0, 0, 0, 0, 0, 0, 0, 0,
            0, 0, 0, 0, 0, 0, 0, 0, 0, 0, 0,
            0, 0, 0, 0, 0, 0, 0, 0, 0, 0, 0,
            0, 0, 0, 0, 0, 0, 0, 0, 0, 0, 0,
            0, 0, 0, 0, 0, 0, 0, 0, 0, 0, 0,
            0, 0, 0, 0, 0, 0, 0, 0, 0, 0, 0,
            0, 0, 0, 0, 0, 0, 0, 0, 0, 0, 0,
            0, 0, 0, 0, 0, 0, 0, 0, 0, 0, 0,
            0, 0, 0, 0, 0, 0, 0, 0, 0, 0, 0,
            0, 0, 0, 0, 0, 0, 0, 0, 0, 0, 0,
            0, 0, 0, 0, 0, 0, 0, 0, 0, 0, 0],
         "height":11,
         "id":3,
         "name":"Player",
         "opacity":1,
         "type":"tilelayer",
         "visible":true,
         "width":11,
         "x":0,
         "y":0
        }],
 "nextlayerid":6,
 "nextobjectid":1,
 "orientation":"orthogonal",
 "properties":[
        {
         "name":"visible_star_count",
         "type":"int",
         "value":10
        }],
 "renderorder":"right-down",
 "tiledversion":"1.11.2",
 "tileheight":32,
 "tilesets":[
        {
         "firstgid":1,
         "source":"..\/TileSet\/game_tilesets.tsj"
        }],
 "tilewidth":32,
 "type":"map",
 "version":"1.10",
 "width":11
}